images/portal/4849.svg

<?xml version="1.0" standalone="no"?><!DOCTYPE svg PUBLIC "-//W3C//DTD SVG 1.1//EN" "http://www.w3.org/Graphics/SVG/1.1/DTD/svg11.dtd"><svg xmlns:xlink="http://www.w3.org/1999/xlink" version="1.1" class="highcharts-root" style="font-family:arial;font-size:12px;" xmlns="http://www.w3.org/2000/svg" width="485" height="415"><desc>Created with Highstock 5.0.14</desc><defs><clipPath id="highcharts-c6rt3gp-6"><rect x="0" y="0" width="280" height="280" fill="none"></rect></clipPath><clipPath id="highcharts-c6rt3gp-7"><rect x="0" y="0" width="280" height="280" fill="none"></rect></clipPath></defs><rect fill="#fbfbfb" class="highcharts-background" x="0" y="0" width="485" height="415" rx="0" ry="0"></rect><rect fill="none" class="highcharts-plot-background" x="53" y="70" width="280" height="280"></rect><g class="highcharts-pane-group"></g><g class="highcharts-grid highcharts-xaxis-grid "><path fill="none" class="highcharts-grid-line" d="M 192.5 70 L 192.5 350" opacity="1"></path><path fill="none" class="highcharts-grid-line" d="M 332.5 70 L 332.5 350" opacity="1"></path><path fill="none" class="highcharts-grid-line" d="M 52.5 70 L 52.5 350" opacity="1"></path></g><g class="highcharts-grid highcharts-yaxis-grid "><path fill="none" stroke="#B9CFD7" stroke-width="0.5" class="highcharts-grid-line" d="M 53 350.25 L 333 350.25" opacity="1"></path><path fill="none" stroke="#B9CFD7" stroke-width="0.5" class="highcharts-grid-line" d="M 53 322.25 L 333 322.25" opacity="1"></path><path fill="none" stroke="#B9CFD7" stroke-width="0.5" class="highcharts-grid-line" d="M 53 294.25 L 333 294.25" opacity="1"></path><path fill="none" stroke="#B9CFD7" stroke-width="0.5" class="highcharts-grid-line" d="M 53 266.25 L 333 266.25" opacity="1"></path><path fill="none" stroke="#B9CFD7" stroke-width="0.5" class="highcharts-grid-line" d="M 53 238.25 L 333 238.25" opacity="1"></path><path fill="none" stroke="#B9CFD7" stroke-width="0.5" class="highcharts-grid-line" d="M 53 210.25 L 333 210.25" opacity="1"></path><path fill="none" stroke="#B9CFD7" stroke-width="0.5" class="highcharts-grid-line" d="M 53 182.25 L 333 182.25" opacity="1"></path><path fill="none" stroke="#B9CFD7" stroke-width="0.5" class="highcharts-grid-line" d="M 53 154.25 L 333 154.25" opacity="1"></path><path fill="none" stroke="#B9CFD7" stroke-width="0.5" class="highcharts-grid-line" d="M 53 126.25 L 333 126.25" opacity="1"></path><path fill="none" stroke="#B9CFD7" stroke-width="0.5" class="highcharts-grid-line" d="M 53 98.25 L 333 98.25" opacity="1"></path><path fill="none" stroke="#B9CFD7" stroke-width="0.5" class="highcharts-grid-line" d="M 53 69.75 L 333 69.75" opacity="1"></path></g><rect fill="none" class="highcharts-plot-border" x="53" y="70" width="280" height="280"></rect><g class="highcharts-axis highcharts-xaxis "><path fill="none" class="highcharts-tick" stroke="#FFFFFF" stroke-width="1" d="M 192.5 350 L 192.5 360" opacity="1"></path><path fill="none" class="highcharts-tick" stroke="#FFFFFF" stroke-width="1" d="M 333.5 350 L 333.5 360" opacity="1"></path><path fill="none" class="highcharts-tick" stroke="#FFFFFF" stroke-width="1" d="M 52.5 350 L 52.5 360" opacity="1"></path><path fill="none" class="highcharts-axis-line" stroke="#B9CFD7" stroke-width="0.5" d="M 53 350.25 L 333 350.25"></path></g><g class="highcharts-axis highcharts-yaxis "><path fill="none" class="highcharts-axis-line" d="M 53 70 L 53 350"></path></g><g class="highcharts-series-group"><g class="highcharts-series highcharts-series-0 highcharts-column-series highcharts-color-undefined " transform="translate(53,70) scale(1 1)" clip-path="url(#highcharts-c6rt3gp-7)"><rect x="36" y="128" width="68" height="153" fill="#256370" class="highcharts-point"></rect><rect x="176" y="129" width="68" height="152" fill="#256370" class="highcharts-point"></rect></g><g class="highcharts-markers highcharts-series-0 highcharts-column-series highcharts-color-undefined " transform="translate(53,70) scale(1 1)" clip-path="none"></g><g class="highcharts-series highcharts-series-1 highcharts-column-series highcharts-color-undefined " transform="translate(53,70) scale(1 1)" clip-path="url(#highcharts-c6rt3gp-7)"><rect x="36" y="28" width="68" height="100" fill="#71A3B5" class="highcharts-point"></rect><rect x="176" y="30" width="68" height="99" fill="#71A3B5" class="highcharts-point"></rect></g><g class="highcharts-markers highcharts-series-1 highcharts-column-series highcharts-color-undefined " transform="translate(53,70) scale(1 1)" clip-path="none"></g><g class="highcharts-series highcharts-series-2 highcharts-column-series highcharts-color-undefined " transform="translate(53,70) scale(1 1)" clip-path="url(#highcharts-c6rt3gp-7)"><rect x="36" y="24" width="68" height="4" fill="#C8C8C8" class="highcharts-point"></rect><rect x="176" y="26" width="68" height="4" fill="#C8C8C8" class="highcharts-point"></rect></g><g class="highcharts-markers highcharts-series-2 highcharts-column-series highcharts-color-undefined " transform="translate(53,70) scale(1 1)" clip-path="none"></g><g class="highcharts-series highcharts-series-3 highcharts-column-series highcharts-color-undefined " transform="translate(53,70) scale(1 1)" clip-path="url(#highcharts-c6rt3gp-7)"><rect x="36" y="18" width="68" height="6" fill="#8A8A8A" class="highcharts-point"></rect><rect x="176" y="18" width="68" height="8" fill="#8A8A8A" class="highcharts-point"></rect></g><g class="highcharts-markers highcharts-series-3 highcharts-column-series highcharts-color-undefined " transform="translate(53,70) scale(1 1)" clip-path="none"></g><g class="highcharts-series highcharts-series-4 highcharts-column-series highcharts-color-undefined " transform="translate(53,70) scale(1 1)" clip-path="url(#highcharts-c6rt3gp-7)"><rect x="36" y="5" width="68" height="13" fill="#FFBB58" class="highcharts-point"></rect><rect x="176" y="4" width="68" height="14" fill="#FFBB58" class="highcharts-point"></rect></g><g class="highcharts-markers highcharts-series-4 highcharts-column-series highcharts-color-undefined " transform="translate(53,70) scale(1 1)" clip-path="none"></g><g class="highcharts-series highcharts-series-5 highcharts-column-series highcharts-color-undefined " transform="translate(53,70) scale(1 1)" clip-path="url(#highcharts-c6rt3gp-7)"><rect x="36" y="0" width="68" height="5" fill="#FF8028" class="highcharts-point"></rect><rect x="176" y="0" width="68" height="4" fill="#FF8028" class="highcharts-point"></rect></g><g class="highcharts-markers highcharts-series-5 highcharts-column-series highcharts-color-undefined " transform="translate(53,70) scale(1 1)" clip-path="none"></g></g><text x="10" text-anchor="start" class="highcharts-title" style="color:#000000;font-size:14px;font-weight:bold;fill:#000000;" y="21"><tspan>Gutes Verhältnis zur Nachbarschaft</tspan></text><text x="10" text-anchor="start" class="highcharts-subtitle" style="color:#000000;font-size:12px;fill:#000000;" y="40"><tspan>«Ich habe ein gutes Verhältnis mit der Mehrheit meiner Nachbarinnen und</tspan><tspan dy="15" x="10">Nachbarn.»</tspan><title>«Ich habe ein gutes Verhältnis mit der Mehrheit meiner Nachbarinnen und Nachbarn.»</title></text><g class="highcharts-legend" transform="translate(345,135)"><rect fill="none" class="highcharts-legend-box" rx="0" ry="0" x="0" y="0" width="130" height="125" visibility="visible"></rect><g><g><g class="highcharts-legend-item highcharts-column-series highcharts-color-undefined highcharts-series-5" transform="translate(8,3)"><text x="21" style="color:#333333;font-size:12px;font-weight:normal;cursor:pointer;fill:#333333;" text-anchor="start" y="15"><tspan>Stimmt gar nicht</tspan></text><rect x="2" y="4" width="12" height="12" fill="#FF8028" class="highcharts-point"></rect></g><g class="highcharts-legend-item highcharts-column-series highcharts-color-undefined highcharts-series-4" transform="translate(8,22)"><text x="21" y="15" style="color:#333333;font-size:12px;font-weight:normal;cursor:pointer;fill:#333333;" text-anchor="start"><tspan>Stimmt eher nicht</tspan></text><rect x="2" y="4" width="12" height="12" fill="#FFBB58" class="highcharts-point"></rect></g><g class="highcharts-legend-item highcharts-column-series highcharts-color-undefined highcharts-series-3" transform="translate(8,41)"><text x="21" y="15" style="color:#333333;font-size:12px;font-weight:normal;cursor:pointer;fill:#333333;" text-anchor="start"><tspan>Keine Angabe</tspan></text><rect x="2" y="4" width="12" height="12" fill="#8A8A8A" class="highcharts-point"></rect></g><g class="highcharts-legend-item highcharts-column-series highcharts-color-undefined highcharts-series-2" transform="translate(8,60)"><text x="21" y="15" style="color:#333333;font-size:12px;font-weight:normal;cursor:pointer;fill:#333333;" text-anchor="start"><tspan>Weiss nicht</tspan></text><rect x="2" y="4" width="12" height="12" fill="#C8C8C8" class="highcharts-point"></rect></g><g class="highcharts-legend-item highcharts-column-series highcharts-color-undefined highcharts-series-1" transform="translate(8,79)"><text x="21" y="15" style="color:#333333;font-size:12px;font-weight:normal;cursor:pointer;fill:#333333;" text-anchor="start"><tspan>Stimmt eher</tspan></text><rect x="2" y="4" width="12" height="12" fill="#71A3B5" class="highcharts-point"></rect></g><g class="highcharts-legend-item highcharts-column-series highcharts-color-undefined highcharts-series-0" transform="translate(8,98)"><text x="21" y="15" style="color:#333333;font-size:12px;font-weight:normal;cursor:pointer;fill:#333333;" text-anchor="start"><tspan>Stimmt genau</tspan></text><rect x="2" y="4" width="12" height="12" fill="#256370" class="highcharts-point"></rect></g></g></g></g><g class="highcharts-axis-labels highcharts-xaxis-labels "><text x="123" style="color:#000000;cursor:default;font-size:11px;fill:#000000;" text-anchor="middle" transform="translate(0,0)" y="369" opacity="1"><tspan>2009</tspan><tspan x="123" dy="14">(N=3119)</tspan></text><text x="263" style="color:#000000;cursor:default;font-size:11px;fill:#000000;" text-anchor="middle" transform="translate(0,0)" y="369" opacity="1"><tspan>2013</tspan><tspan x="263" dy="14">(N=2231)</tspan></text></g><g class="highcharts-axis-labels highcharts-yaxis-labels "><text x="38" style="color:#000000;cursor:default;font-size:11px;fill:#000000;" text-anchor="end" transform="translate(0,0)" y="355" opacity="1"><tspan>0%</tspan></text><text x="38" style="color:#000000;cursor:default;font-size:11px;fill:#000000;" text-anchor="end" transform="translate(0,0)" y="327" opacity="1"><tspan>10%</tspan></text><text x="38" style="color:#000000;cursor:default;font-size:11px;fill:#000000;" text-anchor="end" transform="translate(0,0)" y="299" opacity="1"><tspan>20%</tspan></text><text x="38" style="color:#000000;cursor:default;font-size:11px;fill:#000000;" text-anchor="end" transform="translate(0,0)" y="271" opacity="1"><tspan>30%</tspan></text><text x="38" style="color:#000000;cursor:default;font-size:11px;fill:#000000;" text-anchor="end" transform="translate(0,0)" y="243" opacity="1"><tspan>40%</tspan></text><text x="38" style="color:#000000;cursor:default;font-size:11px;fill:#000000;" text-anchor="end" transform="translate(0,0)" y="215" opacity="1"><tspan>50%</tspan></text><text x="38" style="color:#000000;cursor:default;font-size:11px;fill:#000000;" text-anchor="end" transform="translate(0,0)" y="187" opacity="1"><tspan>60%</tspan></text><text x="38" style="color:#000000;cursor:default;font-size:11px;fill:#000000;" text-anchor="end" transform="translate(0,0)" y="159" opacity="1"><tspan>70%</tspan></text><text x="38" style="color:#000000;cursor:default;font-size:11px;fill:#000000;" text-anchor="end" transform="translate(0,0)" y="131" opacity="1"><tspan>80%</tspan></text><text x="38" style="color:#000000;cursor:default;font-size:11px;fill:#000000;" text-anchor="end" transform="translate(0,0)" y="103" opacity="1"><tspan>90%</tspan></text><text x="38" style="color:#000000;cursor:default;font-size:11px;fill:#000000;" text-anchor="end" transform="translate(0,0)" y="75" opacity="1"><tspan>100%</tspan></text></g><text x="10" class="highcharts-credits" text-anchor="start" style="cursor:default;color:#000000;font-size:10px;fill:#000000;" y="400"><tspan>Quelle: Statistisches Amt Basel-Stadt, kantonale Familienbefragung: F19c</tspan></text></svg>

<svg class="highcharts-root" xmlns="http://www.w3.org/2000/svg" width="485" height="415" font-family="arial" font-size="12">
    <defs>
        <clipPath id="a">
            <path fill="none" d="M0 0h280v280H0z"/>
        </clipPath>
    </defs>
    <rect fill="#fbfbfb" class="highcharts-background" width="485" height="415" rx="0" ry="0"/>
    <path fill="none" class="highcharts-plot-background" d="M53 70h280v280H53z"/>
    <g class="highcharts-grid highcharts-xaxis-grid">
        <path fill="none" class="highcharts-grid-line" d="M192.5 70v280m140-280v280M52.5 70v280"/>
    </g>
    <g class="highcharts-grid highcharts-yaxis-grid">
        <path fill="none" stroke="#B9CFD7" stroke-width=".5" class="highcharts-grid-line" d="M53 350.25h280m-280-28h280m-280-28h280m-280-28h280m-280-28h280m-280-28h280m-280-28h280m-280-28h280m-280-28h280m-280-28h280M53 69.75h280"/>
    </g>
    <path fill="none" class="highcharts-plot-border" d="M53 70h280v280H53z"/>
    <g class="highcharts-axis highcharts-xaxis">
        <path fill="none" class="highcharts-tick" stroke="#FFF" d="M192.5 350v10m141-10v10m-281-10v10"/>
        <path fill="none" class="highcharts-axis-line" stroke="#B9CFD7" stroke-width=".5" d="M53 350.25h280"/>
    </g>
    <g class="highcharts-axis highcharts-yaxis">
        <path fill="none" class="highcharts-axis-line" d="M53 70v280"/>
    </g>
    <g class="highcharts-series-group">
        <g class="highcharts-series highcharts-series-0 highcharts-column-series highcharts-color-undefined" transform="translate(53 70)" clip-path="url(#a)">
            <path fill="#256370" class="highcharts-point" d="M36 128h68v153H36zm140 1h68v152h-68z"/>
        </g>
        <g class="highcharts-series highcharts-series-1 highcharts-column-series highcharts-color-undefined" transform="translate(53 70)" clip-path="url(#a)">
            <path fill="#71A3B5" class="highcharts-point" d="M36 28h68v100H36zm140 2h68v99h-68z"/>
        </g>
        <g class="highcharts-series highcharts-series-2 highcharts-column-series highcharts-color-undefined" transform="translate(53 70)" clip-path="url(#a)">
            <path fill="#C8C8C8" class="highcharts-point" d="M36 24h68v4H36zm140 2h68v4h-68z"/>
        </g>
        <g class="highcharts-series highcharts-series-3 highcharts-column-series highcharts-color-undefined" transform="translate(53 70)" clip-path="url(#a)">
            <path fill="#8A8A8A" class="highcharts-point" d="M36 18h68v6H36zm140 0h68v8h-68z"/>
        </g>
        <g class="highcharts-series highcharts-series-4 highcharts-column-series highcharts-color-undefined" transform="translate(53 70)" clip-path="url(#a)">
            <path fill="#FFBB58" class="highcharts-point" d="M36 5h68v13H36zm140-1h68v14h-68z"/>
        </g>
        <g class="highcharts-series highcharts-series-5 highcharts-column-series highcharts-color-undefined" transform="translate(53 70)" clip-path="url(#a)">
            <path fill="#FF8028" class="highcharts-point" d="M36 0h68v5H36zm140 0h68v4h-68z"/>
        </g>
    </g>
    <text x="10" class="highcharts-title" y="21" color="#000" font-size="14" font-weight="700">
        <tspan>Gutes Verhältnis zur Nachbarschaft</tspan>
    </text>
    <text x="10" class="highcharts-subtitle" y="40" color="#000">
        <tspan>«Ich habe ein gutes Verhältnis mit der Mehrheit meiner Nachbarinnen und</tspan><tspan dy="15" x="10">Nachbarn.»</tspan><title>«Ich habe ein gutes Verhältnis mit der Mehrheit meiner Nachbarinnen und Nachbarn.»</title>
    </text>
    <g class="highcharts-legend" transform="translate(345 135)">
        <rect fill="none" class="highcharts-legend-box" rx="0" ry="0" width="130" height="125"/>
        <g class="highcharts-legend-item highcharts-column-series highcharts-color-undefined highcharts-series-5">
            <text x="21" y="15" color="#333" font-weight="400" cursor="pointer" fill="#333" transform="translate(8 3)">
                <tspan>Stimmt gar nicht</tspan>
            </text>
            <path fill="#FF8028" class="highcharts-point" d="M10 7h12v12H10z"/>
        </g>
        <g class="highcharts-legend-item highcharts-column-series highcharts-color-undefined highcharts-series-4">
            <text x="21" y="15" color="#333" font-weight="400" cursor="pointer" fill="#333" transform="translate(8 22)">
                <tspan>Stimmt eher nicht</tspan>
            </text>
            <path fill="#FFBB58" class="highcharts-point" d="M10 26h12v12H10z"/>
        </g>
        <g class="highcharts-legend-item highcharts-column-series highcharts-color-undefined highcharts-series-3">
            <text x="21" y="15" color="#333" font-weight="400" cursor="pointer" fill="#333" transform="translate(8 41)">
                <tspan>Keine Angabe</tspan>
            </text>
            <path fill="#8A8A8A" class="highcharts-point" d="M10 45h12v12H10z"/>
        </g>
        <g class="highcharts-legend-item highcharts-column-series highcharts-color-undefined highcharts-series-2">
            <text x="21" y="15" color="#333" font-weight="400" cursor="pointer" fill="#333" transform="translate(8 60)">
                <tspan>Weiss nicht</tspan>
            </text>
            <path fill="#C8C8C8" class="highcharts-point" d="M10 64h12v12H10z"/>
        </g>
        <g class="highcharts-legend-item highcharts-column-series highcharts-color-undefined highcharts-series-1">
            <text x="21" y="15" color="#333" font-weight="400" cursor="pointer" fill="#333" transform="translate(8 79)">
                <tspan>Stimmt eher</tspan>
            </text>
            <path fill="#71A3B5" class="highcharts-point" d="M10 83h12v12H10z"/>
        </g>
        <g class="highcharts-legend-item highcharts-column-series highcharts-color-undefined highcharts-series-0">
            <text x="21" y="15" color="#333" font-weight="400" cursor="pointer" fill="#333" transform="translate(8 98)">
                <tspan>Stimmt genau</tspan>
            </text>
            <path fill="#256370" class="highcharts-point" d="M10 102h12v12H10z"/>
        </g>
    </g>
    <g class="highcharts-axis-labels highcharts-xaxis-labels" text-anchor="middle" color="#000" cursor="default" font-size="11">
        <text x="123" y="369">
            <tspan>2009</tspan><tspan x="123" dy="14">(N=3119)</tspan>
        </text>
        <text x="263" y="369">
            <tspan>2013</tspan><tspan x="263" dy="14">(N=2231)</tspan>
        </text>
    </g>
    <g class="highcharts-axis-labels highcharts-yaxis-labels" text-anchor="end" color="#000" cursor="default" font-size="11">
        <text x="38" y="355">
            <tspan>0%</tspan>
        </text>
        <text x="38" y="327">
            <tspan>10%</tspan>
        </text>
        <text x="38" y="299">
            <tspan>20%</tspan>
        </text>
        <text x="38" y="271">
            <tspan>30%</tspan>
        </text>
        <text x="38" y="243">
            <tspan>40%</tspan>
        </text>
        <text x="38" y="215">
            <tspan>50%</tspan>
        </text>
        <text x="38" y="187">
            <tspan>60%</tspan>
        </text>
        <text x="38" y="159">
            <tspan>70%</tspan>
        </text>
        <text x="38" y="131">
            <tspan>80%</tspan>
        </text>
        <text x="38" y="103">
            <tspan>90%</tspan>
        </text>
        <text x="38" y="75">
            <tspan>100%</tspan>
        </text>
    </g>
    <text x="10" class="highcharts-credits" y="400" cursor="default" color="#000" font-size="10">
        <tspan>Quelle: Statistisches Amt Basel-Stadt, kantonale Familienbefragung: F19c</tspan>
    </text>
</svg>
